ci/cil-thumb-up.svg

<svg xmlns="http://www.w3.org/2000/svg" viewBox="0 0 512 512" height="1em" width="1em">
  <path fill="var(--ci-primary-color, currentColor)" d="M126.638 202.672H51.986a24.692 24.692 0 0 0-24.242 19.434 487.088 487.088 0 0 0-1.466 206.535l1.5 7.189a24.94 24.94 0 0 0 24.318 19.78h74.547a24.866 24.866 0 0 0 24.837-24.838V227.509a24.865 24.865 0 0 0-24.842-24.837Zm-7.163 220.938H57.916l-.309-1.487a455.085 455.085 0 0 1 .158-187.451h61.71Zm374.984-146.326-22.09-58.906a24.315 24.315 0 0 0-22.662-15.706H332v-29.535l9.573-21.2a88.117 88.117 0 0 0-44.801-116.912 24.3 24.3 0 0 0-31.767 12.1l-80.312 175.812V248h23.731L290.7 67.882a56.141 56.141 0 0 1 21.711 70.885l-10.991 24.341-1.42 6.584v48.98l16 16h128.3L464 287.2v9.272l-67.988 119.49H271.07l-86.377-50.67v37.1l72.007 42.241a24.222 24.222 0 0 0 12.25 3.329h131.6a24.246 24.246 0 0 0 21.035-12.234l71.25-125.228A24.26 24.26 0 0 0 496 298.531v-12.748a24.144 24.144 0 0 0-1.541-8.499Z" class="ci-primary"/>
</svg>

<svg xmlns="http://www.w3.org/2000/svg" viewBox="0 0 512 512" height="1em" width="1em">
  <path fill="var(--ci-primary-color, currentColor)" d="M126.638,202.672H51.986a24.692,24.692,0,0,0-24.242,19.434,487.088,487.088,0,0,0-1.466,206.535l1.5,7.189a24.94,24.94,0,0,0,24.318,19.78h74.547a24.866,24.866,0,0,0,24.837-24.838V227.509A24.865,24.865,0,0,0,126.638,202.672ZM119.475,423.61H57.916l-.309-1.487a455.085,455.085,0,0,1,.158-187.451h61.71Z" class="ci-primary"/>
  <path fill="var(--ci-primary-color, currentColor)" d="M494.459,277.284l-22.09-58.906a24.315,24.315,0,0,0-22.662-15.706H332V173.137l9.573-21.2A88.117,88.117,0,0,0,296.772,35.025a24.3,24.3,0,0,0-31.767,12.1L184.693,222.937V248h23.731L290.7,67.882a56.141,56.141,0,0,1,21.711,70.885l-10.991,24.341L300,169.692v48.98l16,16H444.3L464,287.2v9.272L396.012,415.962H271.07l-86.377-50.67v37.1L256.7,444.633a24.222,24.222,0,0,0,12.25,3.329h131.6a24.246,24.246,0,0,0,21.035-12.234L492.835,310.5A24.26,24.26,0,0,0,496,298.531V285.783A24.144,24.144,0,0,0,494.459,277.284Z" class="ci-primary"/>
</svg>
